X:473
T:Fisher's hornpipe
T:Blanchard's hornpipe
T:The blacksmith's hornpipe
R:Hornpipe
O:Ireland
B:The Skye Collection p172
B:Joyce, P. W.; "Old Irish Folk Music and Songs" n103
B:Kerr's First p42
B:O'Neill's 1576
S:My arrangement from various sources
Z:Transcription, arrangement, chords:Mike Long
M:4/4
L:1/8
K:D
(3(ABc)|\
"D"dAFA "G"GBAG|"D"FDFD "G"GBAG|"D"FDFD "G"GBAG|"D"FEDF "A"E2 (3(ABc)|\
"D"dAFA "G"GBAG|
"D"FDFD "G"GBAG|"D"FAdf "A"edce|"D"d2 d2 d2:|\
|:cd|\
"A"ecAc ecge|"D"fdAd fdaf|
"A"ecAc ecgf|"Em"edcB "A"A2A2|\
"G"BGDG BGdB|"D"AFDF AFdA|"G"BdcB "A"AGFE|"D"D2D2 D2:|
